icons/fsharp.svg

<svg xmlns="http://www.w3.org/2000/svg" width="16" height="16" fill="none"><path fill="#009BF2" d="M7.5 4.5v-3L1 8l6.5 6.5v-3L4 8l3.5-3.5Z"/><path fill="#28BAD6" d="M8.5 11.5v3L15 8 8.5 1.5v3L12 8l-3.5 3.5Z"/><path fill="#009BF2" d="m5 8 2.5-2.5v5L5 8Z"/></svg>

<svg width="16" height="16" viewBox="0 0 16 16" fill="none" xmlns="http://www.w3.org/2000/svg">
<path d="M7.5 4.5V1.5L1 8L7.5 14.5V11.5L4 8L7.5 4.5Z" fill="#009BF2"/>
<path d="M8.5 11.5L8.5 14.5L15 8L8.5 1.5L8.5 4.5L12 8L8.5 11.5Z" fill="#28BAD6"/>
<path d="M5 8L7.5 5.5V10.5L5 8Z" fill="#009BF2"/>
</svg>
